X:442
T:Reel 442
M:4/4
K:Amin
L:1/8
ED|CB,CA,  (3B,CD ED|CA, (3A,G,A, E2AG|EDB,D B,DG,B,|DG,G,B, G,2ED|CB,CD EAAG|EAAB cBAG|EDE^F G2FG|AcBA GEED|GFGE FDEC|CDCB, A,2EF|GFGE ^F2EF|B,DG,B, D2CD|EDE^F G2GF|ED (3B,CD ECA,B,|CB,CD E^FGE| (3DEF EC D2|
